X: 1
T: Neilidh O'Boyle's Highland
%D:
R: strathspey
S: Fiddle Hell Online 2022-4-8 handout for Jeanne Freeman's workshop
Z: 2022 John Chambers <jc:trillian.mit.edu>
M: 4/4
L: 1/8
K: G
c |:\
B<dd>f e>f (3gfe | d>e (3dcB A2 A>c | B<dd>f e>f (3gfe | d>BA>c B<G G>c :|
B>dg>b (3agf g>d | B>dg>b a< A A>c | B>dg>b (3agf g>e | d>BA>c B<G G>c |
B>dg>b (3agf g>d | B>dg>b a2 g>a | b>ga>f g>ag>e | d>BA>cx B<G G2 |]
